src/lib/assets/illu_contribution.svg

<svg version="1.1" id="Слой_1" xmlns="http://www.w3.org/2000/svg" x="0" y="0" viewBox="0 0 270.7 245.5" style="enable-background:new 0 0 270.7 245.5" xml:space="preserve">
    <style>
        .st1,.st6{fill:none;stroke:#000;stroke-linecap:round;stroke-linejoin:round;stroke-miterlimit:10}.st6{fill:#fff}
    </style>
    <g id="Wiki">
        <linearGradient id="SVGID_1_" gradientUnits="userSpaceOnUse" x1="97.5" y1="251.867" x2="97.5" y2="191.186" gradientTransform="matrix(1 0 0 -1 0 239.276)">
            <stop offset=".3" style="stop-color:#a680ff"/>
            <stop offset="1" style="stop-color:#fffdfd"/>
        </linearGradient>
        <path style="fill:url(#SVGID_1_)" d="M70.4 0h54.2v50H70.4z"/>
        <path d="M92 41.5h-4.1L77.1 10h4.1z"/>
        <path d="M92 41.5h-4.1l7.4-18.2h4.1zm11 0h4.2L118 10h-4.2z"/>
        <path d="M103 41.5h4.2l-7.5-18.2h-4.1z"/>
        <path class="st1" d="M75 10h8.2m28.1 0h8.2"/>
    </g>
    <path class="st1" d="M115.6 71.5H144m-91.4 57.3c-8-.7-15.5-2.9-22-6.4C18.5 116 9.3 105.5 4.4 92.8 1.9 86.2.5 79 .5 71.5c0-3.9.4-7.8 1.1-11.5 3.7-18.3 16.1-33.4 32.6-40.9C41.5 15.8 49.5 14 58 14c31.8 0 57.2 20.6 57.5 57.5.2 25.4-16.4 47-39.4 54.6m125.5 2.9c-33.3 0-57.5-25.8-57.5-57.5 0-31.8 25.8-57.5 57.5-57.5 31.8 0 57.2 20.6 57.5 57.5 0 5.4-.7 10.6-2 15.5-1.8 6.6-4.8 12.7-8.7 18.1-1.2 1.7-2.6 3.4-4 4.9" id="Glasses"/>
    <g id="Text_2_">
        <linearGradient id="SVGID_2_" gradientUnits="userSpaceOnUse" x1="124.2" y1="105.534" x2="124.2" y2="193.557" gradientTransform="matrix(1 0 0 -1 0 239.276)">
            <stop offset=".3" style="stop-color:#a680ff"/>
            <stop offset="1" style="stop-color:#fffdfd"/>
        </linearGradient>
        <path style="fill:url(#SVGID_2_)" d="M83.9 116.4v-6h80.6v6z"/>
        <linearGradient id="SVGID_3_" gradientUnits="userSpaceOnUse" x1="133.5" y1="105.534" x2="133.5" y2="193.557" gradientTransform="matrix(1 0 0 -1 0 239.276)">
            <stop offset=".3" style="stop-color:#a680ff"/>
            <stop offset="1" style="stop-color:#fffdfd"/>
        </linearGradient>
        <path style="fill:url(#SVGID_3_)" d="M83.9 98.2v-6h99.2v6z"/>
        <linearGradient id="SVGID_4_" gradientUnits="userSpaceOnUse" x1="133.5" y1="105.534" x2="133.5" y2="193.557" gradientTransform="matrix(1 0 0 -1 0 239.276)">
            <stop offset=".3" style="stop-color:#a680ff"/>
            <stop offset="1" style="stop-color:#fffdfd"/>
        </linearGradient>
        <path style="fill:url(#SVGID_4_)" d="M83.9 80v-6h99.2v6z"/>
    </g>
    <path class="st1" d="M131.6 7.6h8.5l-3.9 5.1zm56.7 1.8h-41.9m25.9 8.8h-27" id="Notes_1_"/>
    <g id="Man_22_">
        <path class="st1" d="m76.2 130.5 6.4-2.5 11 28.5-24.6 9.4-11-28.4 8.5-3.3"/>
        <path d="M31.6 98.1c-3.4 3.4-10.2 4-13.5 0C9.1 87.2 3.1 74 1.6 60c3.7-18.3 16.1-33.4 32.6-40.9-16.5 18-19.1 45.7-2.6 65.5 3.3 3.9 3.9 9.5 0 13.5z"/>
        <path d="M38.4 111.1c-3.1 5.2-5.7 8.8-7.8 11.2-12.1-6.4-21.3-16.9-26.2-29.6 17.4-22 19.9-22.4 26.9-13.4l.2.2c2.4 3 4.9 5.7 6.9 8.5 4.2 6.1 6.3 12.5 0 23.1z" style="stroke:#000;stroke-linecap:round;stroke-linejoin:round;stroke-miterlimit:10"/>
        <path class="st1" d="M67.7 119.7c-8.7-.2-28.1-1.6-28.4-14.4-.3-11.7-18.5-11.7-18.2 0 .3 10.3 6.1 19 14.7 24.5 9.4 6 21.1 6.5 31.9 6.8 11.7.2 11.7-16.7 0-16.9z"/>
        <path d="M57.3 123.8c.9-2 1.5-3 3.2-4.7-9.4-.6-20.9-3.8-21.2-13.9-.3-11.7-18.5-11.7-18.2 0 .3 10.3 6.1 19 14.7 24.5 6.1 3.9 13.2 5.5 20.4 6.2-.5-4-.6-8.2 1.1-12.1z"/>
        <path class="st1" d="M74 127.6c1.6 4-.8 8.9-3.6 9.5"/>
        <path d="m69.3 141.8-.8 3-1.7-2.6-2.6-18.3 2.5-.4z"/>
        <path class="st6" d="M60.2 125.3c1.3 9.3 4.5 15 7 12.8 1.3-1.2-2-6.3-2.1-7.6m6.5-1.1c2.7 9.5-1.2 12.6-2.5 11.2-.6-.6-.2-3.1-.4-5.3-.2-2.5-.9-4.8-.9-4.8"/>
        <path class="st1" d="M68.5 144.8h12.7M70.5 148h12.8"/>
        <path d="M39.3 108.9c-.6.9-10.9 10.6-10.9 10.6" style="fill:none;stroke:#fff;stroke-linecap:round;stroke-linejoin:round;stroke-miterlimit:10"/>
        <path class="st6" d="M53.7 70.4c-1.2-4.6-8.7-7.9-12.2-2.2-1.6 2.6-2 4.8-1.5 6.6l-7.8 5.8c-.3-.3-.5-.6-.8-1-.4 3.7-.9 13.4-.9 13.4l7.8-4.9c-.3-.5-.7-.9-1-1.4l8.5-6.3c4.2 1.6 6.5-2.6 6.5-2.6l1.9-.1c-.1.1.7-2.7-.5-7.3z"/>
        <path d="M55.7 68.3c-1.1 2.7-8 3.2-10.1 2.6-1.6-.5-2.3 1.6-1.3 2.6.8.9-2.5 1.8-3.3 1.7-.3-.1-.6-.1-.9-.3-.5-1.9-.1-4.1 1.5-6.8s5.5-3.5 8.9-3.7c3.4-.2 6.2.2 5.2 3.9z"/>
    </g>
    <g id="Woman_11_">
        <linearGradient id="SVGID_5_" gradientUnits="userSpaceOnUse" x1="276.504" y1="114.926" x2="221.772" y2="114.926" gradientTransform="matrix(1 0 0 -1 0 239.276)">
            <stop offset=".3" style="stop-color:#a680ff"/>
            <stop offset="1" style="stop-color:#fffdfd"/>
        </linearGradient>
        <path d="M243.4 111.2c-.6 1.5-1.6 2.6-3.2 2.9-.9 2-2.5 3-4.2 2.6-.3.3-.6.5-.8.8-.3.3-.6.4-.9.4-.8.6-1.6 1.3-2.4 1.9-.7.5-1.5 1-2.3 1.4l34.7 16.3 6.4-13.6-27.3-12.7z" style="fill:url(#SVGID_5_)"/>
        <path class="st1" d="m235.8 101.7 29.8 7.2-8.3 34.4-29.8-7.2 4.3-17.6"/>
        <path d="M187.9 96.2c2 12.3 8.2 22.9 8.2 22.9l25.8-13.4 6-2-1.8-5.4c2.1-3.5-.6-8.4-4.6-13.7l-33.6 11.6z"/>
        <path class="st6" d="M220.1 106.4c-8.4 4.9-19.4 8.5-28.6 4.2-3.5-1.6-3.7-3.6-1.9-6.8 2.7-4.7 9.1-6.4 13.9-7.7 12.4-3.3 7.1-22.6-5.3-19.3-10.2 2.7-21 7.6-26.2 17.4-5.2 9.7-4.6 22.3 4.1 29.9 16.4 14.3 45 6.8 59.7-6.7"/>
        <path d="M211.4 130.6c-12.2 3-25.5 2.1-35.2-6.4-8.7-7.6-9.2-20.1-4.1-29.9 4.2-7.8 11.9-12.5 20.1-15.5 2-.7 4.1-1.4 6.1-1.9.6-.2 1.3-.3 1.9-.3 3.6-.3 6.5 1.3 8.3 3.7 3.5 4.6 3.2 12.3-2.9 15.2-.6.3-1.2.5-1.9.7-4.9 1.3-11.2 3-13.9 7.7-1.8 3.1-1.6 5.2 1.9 6.8 4.9 2.2 10.2 2.2 15.5 1-.2 6.4 1.7 12.5 4.2 18.9z"/>
        <path d="M257.1 87c-1.8 6.6-4.8 12.7-8.7 18.1-11.9-8.4-27-17.3-40.8-10.4-.7.3-1.4.6-2.1.8-4.4 1.2-9.1-.2-11.6-4.4-1.9-3.2-1.8-8 .2-11 .8-1.2 1.9-2.1 3.3-2.6.9-.3 1.8-.6 2.6-.8 5.6-1.7 10.8-2.6 15.8-2.8 15.3-.8 28.3 4.6 41.3 13.1z"/>
        <path class="st6" d="M233.3 103c7-1.5 13.7.2 13.3 5.9"/>
        <path class="st6" d="m249.5 113.5.6 3.3-3.1-1.5-12.9-17.7 2.5-1.7z"/>
        <path class="st6" d="M220.1 106.4s10.3-6.6 20-1.4c9.7 5.2 8.9 9 3.3 6.6-3.2-1.4-5.1-2.4-5.1-2.4"/>
        <path class="st6" d="M243.4 111.6c.2.8-1.8 4.2-4.5 2.7m-32.1-39.4-3.8-9.7c1.4-1.3 2.2-3.3 2.4-6.3.3-6.7-7.8-8.1-11.3-5-3.5 3.2-4.4 5.9-4.4 5.9l1.5 1.1s-.5 4.7 3.9 5.8l4 10.1c-.2 0-.5.1-.7.2-2 .5-4.1 1.2-6.1 1.9.7.5 1.3.9 2 1.2 5.3 2.9 10.2 2.4 14.3.3 3-1.6 5.6-4 7.5-6.5-3.1 0-6.1.4-9.3 1zm33.3 40.1s-1.1 3.5-5.1 1.6"/>
        <path d="M230.5 45.7c-5.5 4.1-7.9-.9-13.3 3.8-4.1 3.5-13-1.2-14.8 1.1-.5.7-1.4.9-2.1.3-.1 0-.1-.1-.2-.1-2.7-2.1-5.3-3.4-6.5.3-.6 2.9 4.8 7.1 7 7.8 1.6.5 1 2.6-.4 2.9-.3.1-.4.3-.3.7-.8 7.5 7 11.3 17 12.2 10 .9 8.2-8.2 7.9-13.3-.3-5.1 9.4-5.8 13.3-11.5 3.9-5.8-2.1-8.3-7.6-4.2z"/>
        <path class="st1" d="m250.1 117.5 7.7 1.8m-20.2 1.4 18.9 4.1m-23 10.9-1.1 4.1m3.9-3.7-1.2 4.1m16.1-.2-1.1 4.1m-1.4-5-1.1 4.1"/>
    </g>
    <g id="Objects_10_">
        <path transform="rotate(-64.832 38.053 170.355)" style="fill:none;stroke:#000;stroke-width:1;stroke-linecap:round;stroke-linejoin:round;stroke-miterlimit:10.0004" d="M17.3 165.2h41.5v10.3H17.3z"/>
        <path class="st1" d="m93.2 169.7-51.5 38.2m55.9-31.3L46 214.8M63.2 162l-2.4 4m79-48.2 2.7 1.8m5.8-18.8-1.5 3.4m-26.4 20.9-3 3.9m45.1-7.9 2.4-3m.6-55.7 2.2 3.9m-52.1-27.8 3 3"/>
    </g>
    <g id="Hand_13_">
        <path d="M153.5 226.2c-2.6-.1-4.6-2.2-4.5-4.8l3.1-98.9 4.1-7.9c.7-1.3 2.6-1.1 3 .3l2.3 7.9-3.1 98.9c-.2 2.6-2.3 4.6-4.9 4.5z"/>
        <path class="st6" d="M180.1 245c-15.7-46-45.1-58.1-41.5-83.3 3.6-25.1 7.7-45.8 16.4-34.8 4.9 6.2 3.9 34.8 3.9 34.8"/>
        <path d="m159.8 166 1.6-43.2-2.6-8.7c-.4-1.4-2.3-1.6-3-.3l-3.8 8.7-.8 25.7c1.9 5.7 4.7 13.2 8.6 17.8z"/>
        <path class="st1" d="M151.5 147.9s2.2 14.7 13.4 22.6c8.2 5.7 23.2 4.2 30.4 14.3"/>
        <path class="st1" d="M168.1 134.3c10.6-1.2 12.3 8.6 7.5 23.6-3.4 10.8-14.5 8.9-14.8-1.4-.2-7.2 17.1-31.5-2.6-32.7"/>
        <path class="st1" d="M178.3 141.4c14.5 3.4 13.5 8.9 9.8 25.4-2.7 11.8-14.9 5.5-13.9-5.7"/>
        <path class="st1" d="M190.1 154.8c14.2 15.1 40.5 57.2 44.1 79m-75.6-95.4c3.9 4.5 8.1.3 8.1.3m-23.1-2.1c3.6-.7 4.3-7.9 4.3-7.9m17.6 23c-.9 5.5.6 7.3 4.2 7.9m9.5 1.5c-.3 5.8 4.5 7 4.5 7m-23.5-33.3c2.7 2.8 5 .9 5.7-1.7m57.5 19.8 2.1 3.4"/>
    </g>
</svg>

<svg version="1.1" id="Слой_1" xmlns="http://www.w3.org/2000/svg" x="0" y="0" viewBox="0 0 270.7 245.5" style="enable-background:new 0 0 270.7 245.5" xml:space="preserve">
    <style>
        .st1,.st6{fill:none;stroke:#000;stroke-linecap:round;stroke-linejoin:round;stroke-miterlimit:10}.st6{fill:#fff}
    </style>
    <g id="Wiki">
        <linearGradient id="SVGID_1_" gradientUnits="userSpaceOnUse" x1="97.5" y1="251.867" x2="97.5" y2="191.186" gradientTransform="matrix(1 0 0 -1 0 239.276)">
            <stop offset=".3" style="stop-color:#a680ff"/>
            <stop offset="1" style="stop-color:#fffdfd"/>
        </linearGradient>
        <path style="fill:url(#SVGID_1_)" d="M70.4 0h54.2v50H70.4z"/>
        <path d="M92 41.5h-4.1L77.1 10h4.1z"/>
        <path d="M92 41.5h-4.1l7.4-18.2h4.1zM103 41.5h4.2L118 10h-4.2z"/>
        <path d="M103 41.5h4.2l-7.5-18.2h-4.1z"/>
        <path class="st1" d="M75 10h8.2M111.3 10h8.2"/>
    </g>
    <g id="Glasses">
        <path class="st1" d="M115.6 71.5H144M52.6 128.8c-8-.7-15.5-2.9-22-6.4C18.5 116 9.3 105.5 4.4 92.8 1.9 86.2.5 79 .5 71.5c0-3.9.4-7.8 1.1-11.5 3.7-18.3 16.1-33.4 32.6-40.9C41.5 15.8 49.5 14 58 14c31.8 0 57.2 20.6 57.5 57.5.2 25.4-16.4 47-39.4 54.6M201.6 129c-33.3 0-57.5-25.8-57.5-57.5 0-31.8 25.8-57.5 57.5-57.5 31.8 0 57.2 20.6 57.5 57.5 0 5.4-.7 10.6-2 15.5-1.8 6.6-4.8 12.7-8.7 18.1-1.2 1.7-2.6 3.4-4 4.9"/>
    </g>
    <g id="Text_2_">
        <linearGradient id="SVGID_2_" gradientUnits="userSpaceOnUse" x1="124.2" y1="105.534" x2="124.2" y2="193.557" gradientTransform="matrix(1 0 0 -1 0 239.276)">
            <stop offset=".3" style="stop-color:#a680ff"/>
            <stop offset="1" style="stop-color:#fffdfd"/>
        </linearGradient>
        <path style="fill:url(#SVGID_2_)" d="M83.9 116.4v-6h80.6v6z"/>
        <linearGradient id="SVGID_3_" gradientUnits="userSpaceOnUse" x1="133.5" y1="105.534" x2="133.5" y2="193.557" gradientTransform="matrix(1 0 0 -1 0 239.276)">
            <stop offset=".3" style="stop-color:#a680ff"/>
            <stop offset="1" style="stop-color:#fffdfd"/>
        </linearGradient>
        <path style="fill:url(#SVGID_3_)" d="M83.9 98.2v-6h99.2v6z"/>
        <linearGradient id="SVGID_4_" gradientUnits="userSpaceOnUse" x1="133.5" y1="105.534" x2="133.5" y2="193.557" gradientTransform="matrix(1 0 0 -1 0 239.276)">
            <stop offset=".3" style="stop-color:#a680ff"/>
            <stop offset="1" style="stop-color:#fffdfd"/>
        </linearGradient>
        <path style="fill:url(#SVGID_4_)" d="M83.9 80v-6h99.2v6z"/>
    </g>
    <g id="Notes_1_">
        <path class="st1" d="M131.6 7.6h8.5l-3.9 5.1zM188.3 9.4h-41.9M172.3 18.2h-27"/>
    </g>
    <g id="Man_22_">
        <path class="st1" d="m76.2 130.5 6.4-2.5 11 28.5-24.6 9.4-11-28.4 8.5-3.3"/>
        <path d="M31.6 98.1c-3.4 3.4-10.2 4-13.5 0C9.1 87.2 3.1 74 1.6 60c3.7-18.3 16.1-33.4 32.6-40.9-16.5 18-19.1 45.7-2.6 65.5 3.3 3.9 3.9 9.5 0 13.5z"/>
        <path d="M38.4 111.1c-3.1 5.2-5.7 8.8-7.8 11.2-12.1-6.4-21.3-16.9-26.2-29.6 17.4-22 19.9-22.4 26.9-13.4l.2.2c2.4 3 4.9 5.7 6.9 8.5 4.2 6.1 6.3 12.5 0 23.1z" style="stroke:#000;stroke-linecap:round;stroke-linejoin:round;stroke-miterlimit:10"/>
        <path class="st1" d="M67.7 119.7c-8.7-.2-28.1-1.6-28.4-14.4-.3-11.7-18.5-11.7-18.2 0 .3 10.3 6.1 19 14.7 24.5 9.4 6 21.1 6.5 31.9 6.8 11.7.2 11.7-16.7 0-16.9z"/>
        <path d="M57.3 123.8c.9-2 1.5-3 3.2-4.7-9.4-.6-20.9-3.8-21.2-13.9-.3-11.7-18.5-11.7-18.2 0 .3 10.3 6.1 19 14.7 24.5 6.1 3.9 13.2 5.5 20.4 6.2-.5-4-.6-8.2 1.1-12.1z"/>
        <path class="st1" d="M74 127.6c1.6 4-.8 8.9-3.6 9.5"/>
        <path d="m69.3 141.8-.8 3-1.7-2.6-2.6-18.3 2.5-.4z"/>
        <path class="st6" d="M60.2 125.3c1.3 9.3 4.5 15 7 12.8 1.3-1.2-2-6.3-2.1-7.6M71.6 129.4c2.7 9.5-1.2 12.6-2.5 11.2-.6-.6-.2-3.1-.4-5.3-.2-2.5-.9-4.8-.9-4.8"/>
        <path class="st1" d="M68.5 144.8h12.7M70.5 148h12.8"/>
        <path d="M39.3 108.9c-.6.9-10.9 10.6-10.9 10.6" style="fill:none;stroke:#fff;stroke-linecap:round;stroke-linejoin:round;stroke-miterlimit:10"/>
        <path class="st6" d="M53.7 70.4c-1.2-4.6-8.7-7.9-12.2-2.2-1.6 2.6-2 4.8-1.5 6.6l-7.8 5.8c-.3-.3-.5-.6-.8-1-.4 3.7-.9 13.4-.9 13.4l7.8-4.9c-.3-.5-.7-.9-1-1.4l8.5-6.3c4.2 1.6 6.5-2.6 6.5-2.6l1.9-.1c-.1.1.7-2.7-.5-7.3z"/>
        <path d="M55.7 68.3c-1.1 2.7-8 3.2-10.1 2.6-1.6-.5-2.3 1.6-1.3 2.6.8.9-2.5 1.8-3.3 1.7-.3-.1-.6-.1-.9-.3-.5-1.9-.1-4.1 1.5-6.8s5.5-3.5 8.9-3.7c3.4-.2 6.2.2 5.2 3.9z"/>
    </g>
    <g id="Woman_11_">
        <linearGradient id="SVGID_5_" gradientUnits="userSpaceOnUse" x1="276.504" y1="114.926" x2="221.772" y2="114.926" gradientTransform="matrix(1 0 0 -1 0 239.276)">
            <stop offset=".3" style="stop-color:#a680ff"/>
            <stop offset="1" style="stop-color:#fffdfd"/>
        </linearGradient>
        <path d="M243.4 111.2c-.6 1.5-1.6 2.6-3.2 2.9-.9 2-2.5 3-4.2 2.6-.3.3-.6.5-.8.8-.3.3-.6.4-.9.4-.8.6-1.6 1.3-2.4 1.9-.7.5-1.5 1-2.3 1.4l34.7 16.3 6.4-13.6-27.3-12.7z" style="fill:url(#SVGID_5_)"/>
        <path class="st1" d="m235.8 101.7 29.8 7.2-8.3 34.4-29.8-7.2 4.3-17.6"/>
        <path d="M187.9 96.2c2 12.3 8.2 22.9 8.2 22.9l25.8-13.4 6-2-1.8-5.4c2.1-3.5-.6-8.4-4.6-13.7l-33.6 11.6z"/>
        <path class="st6" d="M220.1 106.4c-8.4 4.9-19.4 8.5-28.6 4.2-3.5-1.6-3.7-3.6-1.9-6.8 2.7-4.7 9.1-6.4 13.9-7.7 12.4-3.3 7.1-22.6-5.3-19.3-10.2 2.7-21 7.6-26.2 17.4-5.2 9.7-4.6 22.3 4.1 29.9 16.4 14.3 45 6.8 59.7-6.7"/>
        <path d="M211.4 130.6c-12.2 3-25.5 2.1-35.2-6.4-8.7-7.6-9.2-20.1-4.1-29.9 4.2-7.8 11.9-12.5 20.1-15.5 2-.7 4.1-1.4 6.1-1.9.6-.2 1.3-.3 1.9-.3 3.6-.3 6.5 1.3 8.3 3.7 3.5 4.6 3.2 12.3-2.9 15.2-.6.3-1.2.5-1.9.7-4.9 1.3-11.2 3-13.9 7.7-1.8 3.1-1.6 5.2 1.9 6.8 4.9 2.2 10.2 2.2 15.5 1-.2 6.4 1.7 12.5 4.2 18.9z"/>
        <path d="M257.1 87c-1.8 6.6-4.8 12.7-8.7 18.1-11.9-8.4-27-17.3-40.8-10.4-.7.3-1.4.6-2.1.8-4.4 1.2-9.1-.2-11.6-4.4-1.9-3.2-1.8-8 .2-11 .8-1.2 1.9-2.1 3.3-2.6.9-.3 1.8-.6 2.6-.8 5.6-1.7 10.8-2.6 15.8-2.8 15.3-.8 28.3 4.6 41.3 13.1z"/>
        <path class="st6" d="M233.3 103c7-1.5 13.7.2 13.3 5.9"/>
        <path class="st6" d="m249.5 113.5.6 3.3-3.1-1.5-12.9-17.7 2.5-1.7z"/>
        <path class="st6" d="M220.1 106.4s10.3-6.6 20-1.4c9.7 5.2 8.9 9 3.3 6.6-3.2-1.4-5.1-2.4-5.1-2.4"/>
        <path class="st6" d="M243.4 111.6c.2.8-1.8 4.2-4.5 2.7M206.8 74.9l-3.8-9.7c1.4-1.3 2.2-3.3 2.4-6.3.3-6.7-7.8-8.1-11.3-5-3.5 3.2-4.4 5.9-4.4 5.9l1.5 1.1s-.5 4.7 3.9 5.8l4 10.1c-.2 0-.5.1-.7.2-2 .5-4.1 1.2-6.1 1.9.7.5 1.3.9 2 1.2 5.3 2.9 10.2 2.4 14.3.3 3-1.6 5.6-4 7.5-6.5-3.1 0-6.1.4-9.3 1zM240.1 115s-1.1 3.5-5.1 1.6"/>
        <path d="M230.5 45.7c-5.5 4.1-7.9-.9-13.3 3.8-4.1 3.5-13-1.2-14.8 1.1-.5.7-1.4.9-2.1.3-.1 0-.1-.1-.2-.1-2.7-2.1-5.3-3.4-6.5.3-.6 2.9 4.8 7.1 7 7.8 1.6.5 1 2.6-.4 2.9-.3.1-.4.3-.3.7-.8 7.5 7 11.3 17 12.2 10 .9 8.2-8.2 7.9-13.3-.3-5.1 9.4-5.8 13.3-11.5 3.9-5.8-2.1-8.3-7.6-4.2z"/>
        <path class="st1" d="m250.1 117.5 7.7 1.8M237.6 120.7l18.9 4.1M233.5 135.7l-1.1 4.1M236.3 136.1l-1.2 4.1M251.2 140l-1.1 4.1M248.7 139.1l-1.1 4.1"/>
    </g>
    <g id="Objects_10_">
        <path transform="rotate(-64.832 38.053 170.355)" style="fill:none;stroke:#000;stroke-width:1;stroke-linecap:round;stroke-linejoin:round;stroke-miterlimit:10.0004" d="M17.3 165.2h41.5v10.3H17.3z"/>
        <path class="st1" d="m93.2 169.7-51.5 38.2M97.6 176.6 46 214.8M63.2 162l-2.4 4M139.8 117.8l2.7 1.8M148.3 100.8l-1.5 3.4M120.4 125.1l-3 3.9M162.5 121.1l2.4-3M165.5 62.4l2.2 3.9M115.6 38.5l3 3"/>
    </g>
    <g id="Hand_13_">
        <path d="M153.5 226.2c-2.6-.1-4.6-2.2-4.5-4.8l3.1-98.9 4.1-7.9c.7-1.3 2.6-1.1 3 .3l2.3 7.9-3.1 98.9c-.2 2.6-2.3 4.6-4.9 4.5z"/>
        <path class="st6" d="M180.1 245c-15.7-46-45.1-58.1-41.5-83.3 3.6-25.1 7.7-45.8 16.4-34.8 4.9 6.2 3.9 34.8 3.9 34.8"/>
        <path d="m159.8 166 1.6-43.2-2.6-8.7c-.4-1.4-2.3-1.6-3-.3l-3.8 8.7-.8 25.7c1.9 5.7 4.7 13.2 8.6 17.8z"/>
        <path class="st1" d="M151.5 147.9s2.2 14.7 13.4 22.6c8.2 5.7 23.2 4.2 30.4 14.3"/>
        <path class="st1" d="M168.1 134.3c10.6-1.2 12.3 8.6 7.5 23.6-3.4 10.8-14.5 8.9-14.8-1.4-.2-7.2 17.1-31.5-2.6-32.7"/>
        <path class="st1" d="M178.3 141.4c14.5 3.4 13.5 8.9 9.8 25.4-2.7 11.8-14.9 5.5-13.9-5.7"/>
        <path class="st1" d="M190.1 154.8c14.2 15.1 40.5 57.2 44.1 79M158.6 138.4c3.9 4.5 8.1.3 8.1.3M143.6 136.6c3.6-.7 4.3-7.9 4.3-7.9M165.5 151.7c-.9 5.5.6 7.3 4.2 7.9M179.2 161.1c-.3 5.8 4.5 7 4.5 7M160.2 134.8c2.7 2.8 5 .9 5.7-1.7M223.4 152.9l2.1 3.4"/>
    </g>
</svg>
